communes/5180.svg

<?xml version="1.0" encoding="UTF-8" standalone="no"?>
<svg
   xmlns:dc="http://purl.org/dc/elements/1.1/"
   xmlns:cc="http://creativecommons.org/ns#"
   xmlns:rdf="http://www.w3.org/1999/02/22-rdf-syntax-ns#"
   xmlns:svg="http://www.w3.org/2000/svg"
   xmlns="http://www.w3.org/2000/svg"
   xmlns:xlink="http://www.w3.org/1999/xlink"
   xmlns:sodipodi="http://sodipodi.sourceforge.net/DTD/sodipodi-0.dtd"
   xmlns:inkscape="http://www.inkscape.org/namespaces/inkscape"
   height="763"
   width="603"
   version="1.0"
   id="svg20"
   sodipodi:version="0.32"
   inkscape:version="0.46"
   sodipodi:docname="Cureglia-coat_of_arms.svg"
   sodipodi:docbase="C:\Documents and Settings\Steve\Bureau\Blason Villages Suisse pour Wikipédia (par Delta-9)"
   inkscape:output_extension="org.inkscape.output.svg.inkscape">
  <metadata
     id="metadata31">
    <rdf:RDF>
      <cc:Work
         rdf:about="">
        <dc:format>image/svg+xml</dc:format>
        <dc:type
           rdf:resource="http://purl.org/dc/dcmitype/StillImage" />
        <dc:date>07-AUG-2006</dc:date>
        <dc:creator>
          <cc:Agent>
            <dc:title>Jérôme BLUM (wagner51)</dc:title>
          </cc:Agent>
        </dc:creator>
        <cc:license
           rdf:resource="http://creativecommons.org/licenses/GPL/2.0/" />
        <dc:coverage />
        <dc:description>Gabarit pour le Projet:Blasons de WIkipédia</dc:description>
        <dc:subject>
          <rdf:Bag>
            <rdf:li>blason suisse modèle gabarit projet blasons</rdf:li>
          </rdf:Bag>
        </dc:subject>
        <dc:language>fr</dc:language>
        <dc:title>Gabrit d'un blason suisse</dc:title>
      </cc:Work>
      <cc:License
         rdf:about="http://creativecommons.org/licenses/GPL/2.0/">
        <cc:permits
           rdf:resource="http://web.resource.org/cc/Reproduction" />
        <cc:permits
           rdf:resource="http://web.resource.org/cc/Distribution" />
        <cc:requires
           rdf:resource="http://web.resource.org/cc/Notice" />
        <cc:permits
           rdf:resource="http://web.resource.org/cc/DerivativeWorks" />
        <cc:requires
           rdf:resource="http://web.resource.org/cc/ShareAlike" />
        <cc:requires
           rdf:resource="http://web.resource.org/cc/SourceCode" />
      </cc:License>
    </rdf:RDF>
  </metadata>
  <defs
     id="defs29"><inkscape:perspective
   sodipodi:type="inkscape:persp3d"
   inkscape:vp_x="0 : 381.5 : 1"
   inkscape:vp_y="0 : 1000 : 0"
   inkscape:vp_z="603 : 381.5 : 1"
   inkscape:persp3d-origin="301.5 : 254.33333 : 1"
   id="perspective28" />
<linearGradient
   id="linearGradient2893">
  <stop
     style="stop-color:#ffffff;stop-opacity:0.3137255;"
     offset="0"
     id="stop2895" />
  <stop
     id="stop2897"
     offset="0.19"
     style="stop-color:#ffffff;stop-opacity:0.25098041;" />
  <stop
     style="stop-color:#6b6b6b;stop-opacity:0.1254902;"
     offset="0.60000002"
     id="stop2901" />
  <stop
     style="stop-color:#000000;stop-opacity:0.1254902;"
     offset="1"
     id="stop2899" />
</linearGradient>
<linearGradient
   id="linearGradient2955">
  <stop
     style="stop-color:white;stop-opacity:0;"
     offset="0"
     id="stop2965" />
  <stop
     style="stop-color:black;stop-opacity:0.64583331;"
     offset="1"
     id="stop2959" />
</linearGradient>
<radialGradient
   inkscape:collect="always"
   xlink:href="#linearGradient2893"
   id="radialGradient3236"
   gradientUnits="userSpaceOnUse"
   gradientTransform="matrix(1.215027,1.531577e-24,1.464684e-23,1.266667,-839.1924,-490.4894)"
   cx="858.04236"
   cy="579.93323"
   fx="858.04236"
   fy="579.93323"
   r="300" />
<inkscape:perspective
   id="perspective2535"
   inkscape:persp3d-origin="306 : 264 : 1"
   inkscape:vp_z="612 : 396 : 1"
   inkscape:vp_y="0 : 1000 : 0"
   inkscape:vp_x="0 : 396 : 1"
   sodipodi:type="inkscape:persp3d" />

	
	

	

		
		
	
		
		
		
		
	
			
			
			
			
			
			
			
			
			
			
		</defs>
  <sodipodi:namedview
     inkscape:window-height="691"
     inkscape:window-width="939"
     inkscape:pageshadow="2"
     inkscape:pageopacity="0.0"
     guidetolerance="10.0"
     gridtolerance="10.0"
     objecttolerance="10.0"
     borderopacity="1.0"
     bordercolor="#666666"
     pagecolor="#ffffff"
     id="base"
     inkscape:zoom="0.57853672"
     inkscape:cx="302.41814"
     inkscape:cy="375.22251"
     inkscape:window-x="20"
     inkscape:window-y="42"
     inkscape:current-layer="layer2"
     showgrid="false"
     showguides="true"
     inkscape:guide-bbox="true">
    <sodipodi:guide
       orientation="horizontal"
       position="761.5"
       id="guide1885" />
    <sodipodi:guide
       orientation="vertical"
       position="1.5"
       id="guide1887" />
    <sodipodi:guide
       orientation="horizontal"
       position="1.5"
       id="guide1889" />
    <sodipodi:guide
       orientation="vertical"
       position="601.5"
       id="guide1891" />
    <sodipodi:guide
       orientation="vertical"
       position="301.50081"
       id="guide1893" />
  </sodipodi:namedview>
  <desc
     id="desc22">Coat of Arms of Canton of Freiburg (Fribourg)</desc>
  <g
     inkscape:groupmode="layer"
     id="layer1"
     inkscape:label="Fond écu"
     style="opacity:1"
     sodipodi:insensitive="true">
    <path
       d="M 1.499995,1.5 L 1.499995,460.368 C 1.499995,626.679 135.81399,761.5 301.49999,761.5 C 467.18599,761.5 601.5,626.679 601.5,460.368 L 601.5,1.5 L 1.499995,1.5 z"
       id="path2542"
       style="opacity:1;fill:#fcef3c" />
  </g>
  <g
     inkscape:groupmode="layer"
     id="layer2"
     inkscape:label="Meubles"
     style="opacity:1"
     sodipodi:insensitive="true">
    <path
       style="stroke:#fcef3c;stroke-width:3;stroke-linecap:round;stroke-linejoin:round"
       d="M 477.88699,482.211 C 483.033,399.943 433.571,327.407 422.96899,324.481 C 412.31299,321.539 387.723,317.336 370.1,320.279 C 352.47899,323.22 329.52699,327 304.93799,324.061 C 280.348,321.122 275.83999,326.999 243.05299,399.283 C 210.266,471.566 216.004,510.228 216.004,510.228 C 216.004,510.228 146.334,557.297 63.136995,550.994 C 63.136995,550.994 91.004995,597.221 175.021,597.221 C 302.47799,597.221 323.79,533.764 431.98599,533.764 C 496.32799,533.764 529.93399,561.92 529.93399,561.92 C 529.93399,561.92 527.061,511.619 477.88699,482.211 z"
       id="path2496" />
    <path
       style="stroke:#fcef3c;stroke-width:3;stroke-linecap:round;stroke-linejoin:round"
       d="M 477.88699,482.211 C 457.57399,470.063 429.35899,461.482 390.18299,461.482 C 322.55999,461.482 264.77499,545.109 168.46399,571.166"
       id="path2498" />
    <path
       style="stroke:#fcef3c;stroke-width:3;stroke-linecap:round;stroke-linejoin:round"
       d="M 354.77999,468.623 C 354.77999,468.623 229.81299,470.293 219.22,470.293"
       id="path2500" />
    <path
       style="stroke:#fcef3c;stroke-width:3;stroke-linecap:round;stroke-linejoin:round"
       d="M 271.61299,519.281 C 244.693,519.281 226.249,514.428 216.004,510.228"
       id="path2502" />
    <path
       style="fill:#e20909;stroke:#000000;stroke-width:3;stroke-linecap:round;stroke-linejoin:round"
       d="M 414.97799,450.555 C 414.97799,450.555 382.396,432.905 382.396,387.518 C 382.396,349.066 393.76899,337.404 393.76899,337.404 C 393.76899,337.404 385.26399,312.294 391.00199,289.18 C 391.00199,289.18 392.84699,245.684 354.528,229.085 C 354.528,229.085 365.59199,223.622 384.444,231.607 C 384.444,231.607 370.92,205.131 335.26499,208.913 C 335.26499,208.913 336.21899,199.713 346.85799,195.34 C 346.85799,195.34 334.85599,186.219 304.52699,186.219 C 266.82299,186.219 231.167,215.217 231.167,257.24 C 231.167,286.657 241.82399,290.02 241.82399,314.814 C 241.82399,340.029 229.93799,365.665 220.51199,375.33 C 220.51199,375.33 175.335,358.369 160.855,322.875 C 160.855,322.875 142.58199,313.512 136.38599,293.831 C 136.38599,293.831 112.56199,258.395 127.89,219.246 C 127.89,219.246 142.59,152.248 215.184,121.921 C 270.511,98.807 295.10099,122.341 295.10099,122.341 C 295.10099,122.341 279.93699,110.995 273.58499,100.278 C 273.58499,100.278 285.67499,110.574 307.807,110.574 C 329.93699,110.574 350.63299,117.508 361.083,135.368 C 361.083,135.368 350.42799,118.558 347.96899,105.531 C 347.96899,105.531 356.16699,120.659 372.96899,125.282 C 389.771,129.905 445.50999,153.018 465.58999,229.923 C 465.58999,229.923 474.60899,214.795 489.77199,205.129 C 489.77199,205.129 472.96699,240.85 472.96699,297.163 C 472.96699,297.163 483.21399,281.195 494.48399,275.101 C 494.48399,275.101 492.23,334.565 466.41199,375.329 C 466.41199,375.329 476.65599,370.287 480.34599,366.504 C 480.34599,366.506 458.00999,423.448 414.97799,450.555 z"
       id="path2506" />
    <path
       id="path2510"
       d="M 346.85799,195.34 C 351.80599,193.306 358.85,192.317 368.87099,193.783"
       style="fill:none;stroke:#000000;stroke-width:3;stroke-linecap:round;stroke-linejoin:round" />
    <path
       id="path2512"
       d="M 160.855,322.876 C 156.67799,312.638 155.05499,300.857 157.80799,287.498"
       style="fill:none;stroke:#000000;stroke-width:3;stroke-linecap:round;stroke-linejoin:round" />
    <path
       id="path2514"
       d="M 136.38599,293.832 C 132.91999,282.821 133.234,268.578 142.644,250.938"
       style="fill:none;stroke:#000000;stroke-width:3;stroke-linecap:round;stroke-linejoin:round" />
    <path
       id="path2516"
       d="M 408.62599,372.81 C 408.62599,372.81 397.04,351.22 393.76899,337.404"
       style="fill:none;stroke:#000000;stroke-width:3;stroke-linecap:round;stroke-linejoin:round" />
    <path
       id="path2518"
       d="M 403.59899,316.729 C 403.59899,316.729 391.00199,299.443 391.00199,289.18"
       style="fill:none;stroke:#000000;stroke-width:3;stroke-linecap:round;stroke-linejoin:round" />
    <path
       id="path2520"
       d="M 127.89,219.247 C 133.812,204.119 145.579,188.438 166.82499,174.032"
       style="fill:none;stroke:#000000;stroke-width:3;stroke-linecap:round;stroke-linejoin:round" />
    <path
       id="path2522"
       d="M 336.90399,173.192 C 336.90399,173.192 318.05099,172.351 304.52699,186.22"
       style="fill:none;stroke:#000000;stroke-width:3;stroke-linecap:round;stroke-linejoin:round" />
    <path
       id="path2524"
       d="M 234.037,214.796 C 234.037,214.796 241.41299,200.088 256.372,191.893"
       style="fill:none;stroke:#000000;stroke-width:3;stroke-linecap:round;stroke-linejoin:round" />
    <path
       id="path2526"
       d="M 208.52599,124.88 C 208.52599,124.88 216.25999,127.017 229.477,127.017"
       style="fill:none;stroke:#000000;stroke-width:3;stroke-linecap:round;stroke-linejoin:round" />
    <path
       id="path2528"
       d="M 414.97799,450.555 C 414.97799,450.555 439.56699,393.192 439.56699,330.154 C 439.56699,235.599 403.91299,153.02 301.86399,153.02 C 199.81699,153.02 167.235,222.991 208.42299,323.22"
       style="fill:none;stroke:#000000;stroke-width:3;stroke-linecap:round;stroke-linejoin:round" />
  </g>
  <g
     inkscape:groupmode="layer"
     id="layer3"
     inkscape:label="Reflet final"
     style="display:inline"
     sodipodi:insensitive="true">
    <path
       style="fill:url(#radialGradient3236);fill-opacity:1"
       d="M 1.5,1.5 L 1.5,460.3679 C 1.5,626.67854 135.81454,761.5 301.49993,761.5 C 467.1854,761.5 601.5,626.67854 601.5,460.3679 L 601.5,1.5 L 1.5,1.5 z "
       id="path2346" />
  </g>
  <g
     inkscape:groupmode="layer"
     id="layer4"
     inkscape:label="Contour final"
     style="display:inline"
     sodipodi:insensitive="true">
    <path
       style="fill:none;fill-opacity:1;stroke:#000000;stroke-width:3;stroke-miterlimit:4;stroke-dasharray:none;stroke-opacity:1"
       d="M 1.5,1.5 L 1.5,460.36794 C 1.5,626.67854 135.81454,761.5 301.49993,761.5 C 467.1854,761.5 601.5,626.67854 601.5,460.36794 L 601.5,1.5 L 1.5,1.5 z "
       id="path3239" />
  </g>
</svg>

<?xml version="1.0" encoding="UTF-8"?>
<svg version="1.0" viewBox="0 0 603 763" xmlns="http://www.w3.org/2000/svg" xmlns:cc="http://creativecommons.org/ns#" xmlns:dc="http://purl.org/dc/elements/1.1/" xmlns:rdf="http://www.w3.org/1999/02/22-rdf-syntax-ns#" xmlns:xlink="http://www.w3.org/1999/xlink">
<metadata>
<rdf:RDF>
<cc:Work rdf:about="">
<dc:format>image/svg+xml</dc:format>
<dc:type rdf:resource="http://purl.org/dc/dcmitype/StillImage"/>
<dc:date>07-AUG-2006</dc:date>
<dc:creator>
<cc:Agent>
<dc:title>Jérôme BLUM (wagner51)</dc:title>
</cc:Agent>
</dc:creator>
<cc:license rdf:resource="http://creativecommons.org/licenses/GPL/2.0/"/>
<dc:coverage/>
<dc:description>Gabarit pour le Projet:Blasons de WIkipédia</dc:description>
<dc:subject>
<rdf:Bag>
<rdf:li>blason suisse modèle gabarit projet blasons</rdf:li>
</rdf:Bag>
</dc:subject>
<dc:language>fr</dc:language>
<dc:title>Gabrit d'un blason suisse</dc:title>
</cc:Work>
<cc:License rdf:about="http://creativecommons.org/licenses/GPL/2.0/">
<cc:permits rdf:resource="http://web.resource.org/cc/Reproduction"/>
<cc:permits rdf:resource="http://web.resource.org/cc/Distribution"/>
<cc:requires rdf:resource="http://web.resource.org/cc/Notice"/>
<cc:permits rdf:resource="http://web.resource.org/cc/DerivativeWorks"/>
<cc:requires rdf:resource="http://web.resource.org/cc/ShareAlike"/>
<cc:requires rdf:resource="http://web.resource.org/cc/SourceCode"/>
</cc:License>
</rdf:RDF>
</metadata>
<defs>
<radialGradient id="a" cx="858.04" cy="579.93" r="300" gradientTransform="matrix(1.215 1.5316e-24 1.4647e-23 1.2667 -839.19 -490.49)" gradientUnits="userSpaceOnUse">
<stop stop-color="#fff" stop-opacity=".31373" offset="0"/>
<stop stop-color="#fff" stop-opacity=".25098" offset=".19"/>
<stop stop-color="#6b6b6b" stop-opacity=".12549" offset=".6"/>
<stop stop-opacity=".12549" offset="1"/>
</radialGradient>
</defs>
<desc>Coat of Arms of Canton of Freiburg (Fribourg)</desc>
<g>
<path d="m1.5 1.5v458.87c0 166.31 134.31 301.13 300 301.13s300-134.82 300-301.13v-458.87h-600z" fill="#fcef3c"/>
<path d="m477.89 482.21c5.146-82.268-44.316-154.8-54.918-157.73-10.656-2.942-35.246-7.145-52.869-4.202-17.621 2.941-40.573 6.721-65.162 3.782-24.59-2.939-29.098 2.938-61.885 75.222-32.787 72.283-27.049 110.94-27.049 110.94s-69.67 47.069-152.87 40.766c0 0 27.868 46.227 111.88 46.227 127.46 0 148.77-63.457 256.96-63.457 64.342 0 97.948 28.156 97.948 28.156s-2.873-50.301-52.047-79.709z" stroke="#fcef3c" stroke-linecap="round" stroke-linejoin="round" stroke-width="3"/>
<path d="m477.89 482.21c-20.313-12.148-48.528-20.729-87.704-20.729-67.623 0-125.41 83.627-221.72 109.68" stroke="#fcef3c" stroke-linecap="round" stroke-linejoin="round" stroke-width="3"/>
<path d="m354.78 468.62s-124.97 1.67-135.56 1.67" stroke="#fcef3c" stroke-linecap="round" stroke-linejoin="round" stroke-width="3"/>
<path d="m271.61 519.28c-26.92 0-45.364-4.853-55.609-9.053" stroke="#fcef3c" stroke-linecap="round" stroke-linejoin="round" stroke-width="3"/>
<path d="m414.98 450.56s-32.582-17.65-32.582-63.037c0-38.452 11.373-50.114 11.373-50.114s-8.505-25.11-2.767-48.224c0 0 1.845-43.496-36.474-60.095 0 0 11.064-5.463 29.916 2.522 0 0-13.524-26.476-49.179-22.694 0 0 0.954-9.2 11.593-13.573 0 0-12.002-9.121-42.331-9.121-37.704 0-73.36 28.998-73.36 71.021 0 29.417 10.657 32.78 10.657 57.574 0 25.215-11.886 50.851-21.312 60.516 0 0-45.177-16.961-59.657-52.455 0 0-18.273-9.363-24.469-29.044 0 0-23.824-35.436-8.496-74.585 0 0 14.7-66.998 87.294-97.325 55.327-23.114 79.917 0.42 79.917 0.42s-15.164-11.346-21.516-22.063c0 0 12.09 10.296 34.222 10.296 22.13 0 42.826 6.934 53.276 24.794 0 0-10.655-16.81-13.114-29.837 0 0 8.198 15.128 25 19.751 16.802 4.623 72.541 27.736 92.621 104.64 0 0 9.019-15.128 24.182-24.794 0 0-16.805 35.721-16.805 92.034 0 0 10.247-15.968 21.517-22.062 0 0-2.254 59.464-28.072 100.23 0 0 10.244-5.042 13.934-8.825 0 2e-3 -22.336 56.944-65.368 84.051z" fill="#e20909" stroke="#000" stroke-linecap="round" stroke-linejoin="round" stroke-width="3"/>
<path d="m346.86 195.34c4.948-2.034 11.992-3.023 22.013-1.557" fill="none" stroke="#000" stroke-linecap="round" stroke-linejoin="round" stroke-width="3"/>
<path d="m160.86 322.88c-4.177-10.238-5.8-22.019-3.047-35.378" fill="none" stroke="#000" stroke-linecap="round" stroke-linejoin="round" stroke-width="3"/>
<path d="m136.39 293.83c-3.466-11.011-3.152-25.254 6.258-42.894" fill="none" stroke="#000" stroke-linecap="round" stroke-linejoin="round" stroke-width="3"/>
<path d="m408.63 372.81s-11.586-21.59-14.857-35.406" fill="none" stroke="#000" stroke-linecap="round" stroke-linejoin="round" stroke-width="3"/>
<path d="m403.6 316.73s-12.597-17.286-12.597-27.549" fill="none" stroke="#000" stroke-linecap="round" stroke-linejoin="round" stroke-width="3"/>
<path d="m127.89 219.25c5.922-15.128 17.689-30.809 38.935-45.215" fill="none" stroke="#000" stroke-linecap="round" stroke-linejoin="round" stroke-width="3"/>
<path d="m336.9 173.19s-18.853-0.841-32.377 13.028" fill="none" stroke="#000" stroke-linecap="round" stroke-linejoin="round" stroke-width="3"/>
<path d="m234.04 214.8s7.376-14.708 22.335-22.903" fill="none" stroke="#000" stroke-linecap="round" stroke-linejoin="round" stroke-width="3"/>
<path d="m208.53 124.88s7.734 2.137 20.951 2.137" fill="none" stroke="#000" stroke-linecap="round" stroke-linejoin="round" stroke-width="3"/>
<path d="m414.98 450.56s24.589-57.363 24.589-120.4c0-94.555-35.654-177.13-137.7-177.13-102.05 0-134.63 69.971-93.441 170.2" fill="none" stroke="#000" stroke-linecap="round" stroke-linejoin="round" stroke-width="3"/>
</g>
<g>
<path d="m1.5 1.5v458.87c0 166.31 134.31 301.13 300 301.13 165.69 0 300-134.82 300-301.13v-458.87h-600z" fill="url(#a)"/>
<path d="m1.5 1.5v458.87c0 166.31 134.31 301.13 300 301.13 165.69 0 300-134.82 300-301.13v-458.87h-600z" fill="none" stroke="#000" stroke-width="3"/>
</g>
</svg>
